X: 39
T: the Royal salute
%%VWML:Thompsons1774-3047-p20-0
F:http://www.vwml.org/record/Thompsons1774/3047/p20
M: C
L: 1/8
Z: 2011 John Chambers <jc:trillian.mit.edu>
B: Charles & Samuel Thompson eds "Twenty Four Country Dances", London 1774, p.20 #1 
K: A
%-------------------------
e2 |\
(dc)(BA) (cB)(AG) | A2E2 E2A2 | F2F2 F2e2 | c4 B2e2 |
(dc)(BA) (cB)(AG) | A2E2 E2a2 | (ag)(fe) gfe^d | e6 :|
|: Bc |\
d2d2 d2d2 | d2c2 e4 | f3e dcBA | G3F E2e2 |
fdcd fagb | a2gf e2d2 | (dc)(BA) (cB)(AG) | A6 :|
% - - - - - - - - Dance description - - - - - - - -
%%begintext align
%% Lead down 2 Cu. & ballance Allemand .|. up
%% again & ballance Allemand :|. 3. 1st Cu. ballance
%% all round .|: cast off Right & Left :|:
%%endtext
T: Justice Ballance 
R: reel
M: C|
L: 1/8
Z: 2011 John Chambers <jc:trillian.mit.edu>
B: Charles & Samuel Thompson eds "Twenty Four Country Dances", London 1774, p._20 #2 
K: G
%-------------------------
D |\
GABc defd | g2fe d2d2 | ecBA dBAG | cABG {G}F2ED |
GABc defd | g2fe a2g2 | fafd ege^c | d2D2 D3 :|
|: A |\
defg a2c2 | c2BA B2d2 | ecBA dBAG | cABG AFED |
GABc defd | g2fe d2c2 | BdBG AcAF | G2G,2 G,3 :|
% - - - - - - - - Dance description - - - - - - - -
%%begintext align
%% 1st Cu. lead thro' the 2d Cu. & cast up .|. 2d Cu.
%% lead thro' the 1st Cu. & cast off :|. cross over
%% & turn .|: Right & Left :|:
%%endtext
